public/logos/studiocms.svg

<svg xmlns="http://www.w3.org/2000/svg" fill="none" viewBox="0 0 755 792">
  <rect width="460" height="466" x="295" fill="#fff" rx="32"/>
  <path fill="#fff" d="M272 434V166h-92c-17.673 0-32 14.327-32 32v399c0 17.673 14.327 32 32 32h397.5c17.673 0 32-14.327 32-32V490H328c-30.928 0-56-25.072-56-56Z"/>
  <path fill="#fff" d="M124 597V329H32c-17.673 0-32 14.327-32 32v399c0 17.673 14.327 32 32 32h397.5c17.673 0 32-14.327 32-32V653H180c-30.928 0-56-25.072-56-56Z"/>
</svg>

<svg width="755" height="792" viewBox="0 0 755 792" fill="none" xmlns="http://www.w3.org/2000/svg">
  <rect x="295" width="460" height="466" rx="32" fill="white"/>
  <path d="M272 434V166H180C162.327 166 148 180.327 148 198V597C148 614.673 162.327 629 180 629H577.5C595.173 629 609.5 614.673 609.5 597V490H328C297.072 490 272 464.928 272 434Z" fill="white"/>
  <path d="M124 597V329H32C14.3269 329 0 343.327 0 361V760C0 777.673 14.3269 792 32 792H429.5C447.173 792 461.5 777.673 461.5 760V653H180C149.072 653 124 627.928 124 597Z" fill="white"/>
</svg>
